X: 21912
T: Kitchen Criminal, The
R: reel
M: 4/4
K: Bminor
|:BffB g2fg|fedf edcd|BffB g2fg|aeeg fBBA|
BffB g2fg|fedf edcd|ABBA BABf|edcd B2B2:|
|:Bddc- cdA2-|Adcd BdAd|gddf- fde2-|edef edcd|
Bddc- cdA2-|Adcd BdAd|geeg fedf|edcd B2B2:|

